X: 100025
M: C|
L: 1/8
K: E
uE2 |\
e>BG>B e2((3efg) | (a>g)f>e (d>e)f>a | (g>b)g>e (c>a)f>d | e2g2 e2 :|
|: (g>a) |\
(b>g)e>B (G>B)b>g | a2f2 f2(f>g) | (a>g)f>e (d>e)f>g | (a>b)g>a (f>a)g>f |
e>BG>B e2((3efg) | (a>g)f>e (d>e)f>a | (g>b)g>e (c>a)f>d | e2g2 e2 :|


